svg/fluentui-system-icons/ic_fluent_calendar_sync_16_regular.svg

<svg width="16" height="16" viewBox="0 0 16 16" fill="none" xmlns="http://www.w3.org/2000/svg">
<path d="M11.5 2C12.8807 2 14 3.11929 14 4.5V6.25716C13.0491 5.47182 11.8296 5 10.5 5H13V4.5C13 3.67157 12.3284 3 11.5 3H4.5C3.67157 3 3 3.67157 3 4.5V5H10.5C9.32259 5 8.23159 5.36997 7.33692 6H3V11.5C3 12.3284 3.67157 13 4.5 13H5.59971C5.78261 13.3578 6.00353 13.6929 6.25716 14H4.5C3.11929 14 2 12.8807 2 11.5V4.5C2 3.11929 3.11929 2 4.5 2H11.5ZM6 10.5C6 12.9853 8.01472 15 10.5 15C12.9853 15 15 12.9853 15 10.5C15 8.01472 12.9853 6 10.5 6C8.01472 6 6 8.01472 6 10.5ZM12.5 7.5C12.7761 7.5 13 7.72386 13 8V9.5C13 9.77614 12.7761 10 12.5 10H11C10.7239 10 10.5 9.77614 10.5 9.5C10.5 9.22386 10.7239 9 11 9H11.4682C11.4179 8.97215 11.3663 8.94644 11.3135 8.92296C11.0682 8.81372 10.8034 8.755 10.535 8.75031C10.2665 8.74561 9.99977 8.79503 9.75079 8.89562C9.5018 8.99621 9.27563 9.1459 9.08575 9.33579C8.89048 9.53105 8.5739 9.53105 8.37864 9.33579C8.18338 9.14052 8.18338 8.82394 8.37864 8.62868C8.66346 8.34386 9.00273 8.11931 9.3762 7.96842C9.74967 7.81754 10.1497 7.74341 10.5524 7.75046C10.9552 7.75751 11.3524 7.84558 11.7203 8.00944C11.8162 8.05211 11.9095 8.0997 12 8.15195V8C12 7.72386 12.2239 7.5 12.5 7.5ZM11.6238 13.0316C11.2503 13.1825 10.8503 13.2566 10.4476 13.2495C10.0448 13.2425 9.64762 13.1544 9.27966 12.9906C9.18383 12.9479 9.09049 12.9003 9 12.8481V13C9 13.2761 8.77614 13.5 8.5 13.5C8.22386 13.5 8 13.2761 8 13V11.5C8 11.2239 8.22386 11 8.5 11H10C10.2761 11 10.5 11.2239 10.5 11.5C10.5 11.7761 10.2761 12 10 12H9.53179C9.58213 12.0278 9.63372 12.0536 9.68645 12.077C9.93176 12.1863 10.1966 12.245 10.465 12.2497C10.7335 12.2544 11.0002 12.205 11.2492 12.1044C11.4982 12.0038 11.7244 11.8541 11.9143 11.6642C12.1095 11.469 12.4261 11.469 12.6214 11.6642C12.8166 11.8595 12.8166 12.1761 12.6214 12.3713C12.3365 12.6561 11.9973 12.8807 11.6238 13.0316Z" fill="#212121"/>
</svg>

<svg xmlns="http://www.w3.org/2000/svg" width="16" height="16"><path d="M11.5 2A2.5 2.5 0 0 1 14 4.5v1.757A5.478 5.478 0 0 0 10.5 5H13v-.5A1.5 1.5 0 0 0 11.5 3h-7A1.5 1.5 0 0 0 3 4.5V5h7.5c-1.177 0-2.268.37-3.163 1H3v5.5A1.5 1.5 0 0 0 4.5 13h1.1c.183.358.404.693.657 1H4.5A2.5 2.5 0 0 1 2 11.5v-7A2.5 2.5 0 0 1 4.5 2h7ZM6 10.5a4.5 4.5 0 1 0 9 0 4.5 4.5 0 0 0-9 0Zm6.5-3a.5.5 0 0 1 .5.5v1.5a.5.5 0 0 1-.5.5H11a.5.5 0 0 1 0-1h.468a1.982 1.982 0 0 0-.933-.25 2 2 0 0 0-1.45.586.5.5 0 0 1-.706-.707A3 3 0 0 1 12 8.152V8a.5.5 0 0 1 .5-.5Zm-.876 5.532A2.999 2.999 0 0 1 9 12.848V13a.5.5 0 0 1-1 0v-1.5a.5.5 0 0 1 .5-.5H10a.5.5 0 0 1 0 1h-.468a1.99 1.99 0 0 0 .933.25 2 2 0 0 0 1.45-.586.5.5 0 0 1 .706.707c-.285.285-.624.51-.997.66Z"/></svg>
